X: 19144
T: Irish Washerwoman, The
R: jig
M: 6/8
K: Gmajor
dc|:BGB DGB|DGB dcB|cBc DFA|dfa gdc|
BGB DGB|DGB dcB|cBc Adc|1 BGG Gdc:|2 BGG G3||
|:ggg dgd|ggg bag|fdf Adf|adf agf|
gag fgf|efe dcB|cBc Adc|BGG G3||

